X:1
T:Trim Your Lamps
T:E. F. Miller
T:Trim Your Lamps
T:Public Domain
T:Public Domain
C:E. F. Miller
Z:Public Domain
%%score ( 1 2 ) ( 3 4 )
L:1/8
M:4/4
K:Ab
V:1 treble 
V:2 treble 
V:3 bass 
V:4 bass 
V:1
 [CE]2 | [CA]2 (ED) [DA]2 (cB) | [EA]2 [CE]2 [CE]2 ([EG][FA]) | [GB]2 (BA) [GB]2 (AB) | %4
w: 1.~Re-|joice, ye * saints! the *|near When Christ will *|in the * clouds ap- *|
w: 2.~The|trum- pet * sounds, the *|roll; The heav- ens *|pass- ing * as a *|
w: 3.~Poor|sin- ners * then on *|cry, While light- nings *|flash from * out the *|
w: 4.~Come,|breth- ren * all, and *|try To warn poor *|sin- ners, * and to *|
 [Ec]2 [CA]2 [CA]2 [Ec]2 | [EB]2 [EAc]2 [EG]2 [^DF]2 | [B,E]6 ||"^Refrain" C[CE] | %8
w: for His peo- ple|call. * * *|||
w: earth will burn with|fire. Trim your lamps,|and|be rea-|
w: mount- ains, on us|fall!” * * *|||
w: hold, the Bride- groom|comes!” * * *|||
 [EA]2 [EA]>[EB] [EA][EG][EG]A | [GB]2 [GB]>[Ec] [EB][EA][EA][Ac] | %10
w: ||
w: Trim your lamps, and be rea- dy,|your lamps, and be rea- dy For|
w: ||
w: ||
 [Ae]2 [Ae]>[Af] [Ee][Ed][Ec][Fd] | [Ec]2 [DB]2 [CA]2 (3([CE][DF])[EG] | %12
w: ||
w: the mid- night cry. For the mid-|night cry, For the * mid-|
w: ||
w: ||
 [CA]2 (ED) [B,A]2 [EG][FA] | [GB]2 (BA) [GB]2 [Ac][Bd] | [Ae]2 [Ae]>[Af] [Ee][Ed][Ec][Fd] | %15
w: |||
w: night cry, * Trim your lamps|be rea- * dy, For the|night cry. * * * * *|
w: |||
w: |||
 [Ec]2 [DB]2 [CA]2 |] %16
w: |
w: |
w: |
w: |
V:2
 x2 | x2 A2 x E2 x | x8 | x2 B2 x E2 x | x8 | x8 | x6 || C x | x7 A | x8 | x8 | x8 | x2 A2 x4 | %13
w: |time draws||pear, And||||||||||
w: |thun- ders||scroll; The||||dy,|Trim||||and|
w: |earth will||sky, “O||||||||||
w: |let us||cry, “Be-||||||||||
 x2 B2 x4 | x8 | x6 |] %16
w: |||
w: mid-|||
w: |||
w: |||
V:3
 [A,,A,]2 | [A,,E,]2 (C,B,,) [A,,E,]2 ([E,A,][E,G,]) | [C,A,]2 C,B,, [A,,A,]2 [E,B,]2 | %3
 [E,B,]2 (G,F,) [E,E]2 ([A,C][G,B,]) | A,2 [A,,E,]2 [A,,E,]2 A,2 | %5
 [E,G,]2 [A,,C]2 [B,,B,]2 [B,,A,]2 | [E,G,]6 || [A,,A,][A,,A,] | %8
 [A,C]2 [C,E]>[D,D] [E,C][E,B,][E,B,][E,B,] | [E,D]2 [E,D]>[E,E] [E,D][A,C][A,C][A,E] | %10
 [A,C]2 [A,C]>[D,A,] [C,A,][B,,G,][A,,A,][D,A,] | [E,A,]2 [E,G,]2 [A,,A,]2 (3:2:2[A,,A,]2 [A,,A,] | %12
 [A,,E,]2 (C,B,,) [A,,A,]2 [E,B,][E,B,] | [E,B,]2 (G,F,) [E,E]2 [A,E][G,D] | %14
 [A,C]2 [A,C]>[D,A,] [C,A,][B,,G,][A,,A,][D,A,] | [E,A,]2 [E,G,]2 [A,,A,]2 |] %16
V:4
 x2 | x2 [E,A,]2 x4 | x2 A,2 x4 | x2 E2 x4 | A,2 x2 A,2 x2 | x8 | x6 || x2 | x8 | x8 | x8 | x8 | %12
 x2 E,2 x4 | x2 E2 x4 | x8 | x6 |] %16

